img/social/vk.svg

<svg width="37.401" height="20" fill="none" xmlns="http://www.w3.org/2000/svg"><path d="M37.2 18.06c-.05-.09-.09-.17-.13-.23-.65-1.1-1.89-2.44-3.72-4.03l-.04-.04-.02-.02-.02-.02h-.02c-.83-.74-1.35-1.24-1.57-1.49-.41-.49-.5-.98-.28-1.48.16-.38.74-1.18 1.76-2.39.53-.65.95-1.17 1.26-1.55 2.25-2.8 3.22-4.59 2.92-5.37l-.11-.18c-.08-.11-.28-.21-.61-.3-.32-.1-.74-.11-1.24-.05l-5.61.04c-.09-.03-.22-.03-.39.01-.17.03-.25.05-.25.05l-.1.05-.08.05c-.06.04-.13.1-.21.19-.08.09-.15.2-.2.32-.61 1.47-1.3 2.84-2.08 4.11-.48.75-.92 1.41-1.33 1.96-.4.55-.74.96-1.01 1.22-.27.27-.52.47-.74.63-.22.16-.39.23-.5.2-.12-.02-.23-.04-.34-.07a1.24 1.24 0 0 1-.43-.45c-.11-.18-.19-.42-.23-.71-.04-.28-.06-.53-.07-.74 0-.2 0-.5.01-.87.02-.38.02-.64.02-.77 0-.46.01-.96.03-1.51.02-.54.04-.97.05-1.28.01-.32.02-.65.02-1.01 0-.35-.02-.63-.07-.83-.04-.2-.11-.39-.2-.58-.09-.19-.23-.34-.4-.44-.18-.1-.39-.18-.65-.25-.69-.14-1.57-.22-2.63-.23-2.42-.03-3.97.12-4.66.44-.27.13-.52.31-.74.54-.23.27-.26.42-.09.44.78.11 1.33.37 1.65.79l.12.21c.09.16.18.44.27.84.09.41.15.85.18 1.34.06.88.06 1.65 0 2.28-.07.63-.13 1.12-.19 1.48-.06.35-.14.64-.26.85-.12.22-.2.36-.23.41-.04.04-.08.07-.1.09-.17.06-.35.09-.53.09-.18 0-.4-.09-.66-.26s-.53-.4-.81-.7c-.28-.3-.59-.71-.94-1.25s-.72-1.17-1.09-1.9l-.31-.53c-.2-.34-.47-.83-.8-1.49-.34-.65-.64-1.28-.9-1.88-.1-.26-.26-.45-.47-.59l-.09-.05c-.07-.05-.17-.1-.31-.16-.15-.05-.3-.09-.45-.12L1.24.91c-.54 0-.91.12-1.11.35l-.08.11c-.04.06-.05.15-.05.29 0 .13.03.3.11.49a60.98 60.98 0 0 0 2.54 4.97c.92 1.59 1.71 2.87 2.39 3.85.67.97 1.36 1.89 2.06 2.75.7.87 1.17 1.42 1.39 1.66.23.25.41.43.54.55l.49.44c.31.29.77.64 1.37 1.05.6.41 1.27.81 2.01 1.2.73.4 1.58.72 2.56.97.97.25 1.92.35 2.84.3h2.24c.45-.04.8-.17 1.03-.4l.08-.09c.05-.07.1-.19.14-.34.05-.15.07-.32.07-.5-.01-.52.03-1 .13-1.42.1-.42.21-.73.33-.94.12-.22.26-.4.42-.54.15-.15.27-.24.33-.27.07-.03.12-.05.16-.06.31-.1.67 0 1.1.28.42.29.81.64 1.18 1.06.37.42.82.89 1.34 1.41.52.53.97.92 1.36 1.17l.39.22c.26.15.6.28 1.01.4.42.13.78.16 1.09.09l4.99-.07c.49 0 .88-.07 1.15-.23.27-.15.43-.32.48-.5.06-.18.06-.39.01-.62-.04-.23-.09-.39-.13-.48Z" fill="#FFF"/></svg>

<svg width="37.401001" height="20.000000" viewBox="0 0 37.401 20" fill="none" xmlns="http://www.w3.org/2000/svg" xmlns:xlink="http://www.w3.org/1999/xlink">
	<desc>
			Created with Pixso.
	</desc>
	<defs/>
	<path d="M37.2 18.06C37.15 17.97 37.11 17.89 37.07 17.83C36.42 16.73 35.18 15.39 33.35 13.8L33.31 13.76L33.29 13.74L33.27 13.72L33.25 13.72C32.42 12.98 31.9 12.48 31.68 12.23C31.27 11.74 31.18 11.25 31.4 10.75C31.56 10.37 32.14 9.57 33.16 8.36C33.69 7.71 34.11 7.19 34.42 6.81C36.67 4.01 37.64 2.22 37.34 1.44L37.23 1.26C37.15 1.15 36.95 1.05 36.62 0.96C36.3 0.86 35.88 0.85 35.38 0.91L29.77 0.95C29.68 0.92 29.55 0.92 29.38 0.96C29.21 0.99 29.13 1.01 29.13 1.01L29.03 1.06L28.95 1.11C28.89 1.15 28.82 1.21 28.74 1.3C28.66 1.39 28.59 1.5 28.54 1.62C27.93 3.09 27.24 4.46 26.46 5.73C25.98 6.48 25.54 7.14 25.13 7.69C24.73 8.24 24.39 8.65 24.12 8.91C23.85 9.18 23.6 9.38 23.38 9.54C23.16 9.7 22.99 9.77 22.88 9.74C22.76 9.72 22.65 9.7 22.54 9.67C22.36 9.56 22.22 9.41 22.11 9.22C22 9.04 21.92 8.8 21.88 8.51C21.84 8.23 21.82 7.98 21.81 7.77C21.81 7.57 21.81 7.27 21.82 6.9C21.84 6.52 21.84 6.26 21.84 6.13C21.84 5.67 21.85 5.17 21.87 4.62C21.89 4.08 21.91 3.65 21.92 3.34C21.93 3.02 21.94 2.69 21.94 2.33C21.94 1.98 21.92 1.7 21.87 1.5C21.83 1.3 21.76 1.11 21.67 0.92C21.58 0.73 21.44 0.58 21.27 0.48C21.09 0.38 20.88 0.3 20.62 0.23C19.93 0.09 19.05 0.01 17.99 0C15.57 -0.03 14.02 0.12 13.33 0.44C13.06 0.57 12.81 0.75 12.59 0.98C12.36 1.25 12.33 1.4 12.5 1.42C13.28 1.53 13.83 1.79 14.15 2.21L14.27 2.42C14.36 2.58 14.45 2.86 14.54 3.26C14.63 3.67 14.69 4.11 14.72 4.6C14.78 5.48 14.78 6.25 14.72 6.88C14.65 7.51 14.59 8 14.53 8.36C14.47 8.71 14.39 9 14.27 9.21C14.15 9.43 14.07 9.57 14.04 9.62C14 9.66 13.96 9.69 13.94 9.71C13.77 9.77 13.59 9.8 13.41 9.8C13.23 9.8 13.01 9.71 12.75 9.54C12.49 9.37 12.22 9.14 11.94 8.84C11.66 8.54 11.35 8.13 11 7.59C10.65 7.05 10.28 6.42 9.91 5.69L9.6 5.16C9.4 4.82 9.13 4.33 8.8 3.67C8.46 3.02 8.16 2.39 7.9 1.79C7.8 1.53 7.64 1.34 7.43 1.2L7.34 1.15C7.27 1.1 7.17 1.05 7.03 0.99C6.88 0.94 6.73 0.9 6.58 0.87L1.24 0.91C0.7 0.91 0.33 1.03 0.13 1.26L0.05 1.37C0.01 1.43 0 1.52 0 1.66C0 1.79 0.03 1.96 0.11 2.15C0.89 3.87 1.74 5.52 2.65 7.12C3.57 8.71 4.36 9.99 5.04 10.97C5.71 11.94 6.4 12.86 7.1 13.72C7.8 14.59 8.27 15.14 8.49 15.38C8.72 15.63 8.9 15.81 9.03 15.93L9.52 16.37C9.83 16.66 10.29 17.01 10.89 17.42C11.49 17.83 12.16 18.23 12.9 18.62C13.63 19.02 14.48 19.34 15.46 19.59C16.43 19.84 17.38 19.94 18.3 19.89L20.54 19.89C20.99 19.85 21.34 19.72 21.57 19.49L21.65 19.4C21.7 19.33 21.75 19.21 21.79 19.06C21.84 18.91 21.86 18.74 21.86 18.56C21.85 18.04 21.89 17.56 21.99 17.14C22.09 16.72 22.2 16.41 22.32 16.2C22.44 15.98 22.58 15.8 22.74 15.66C22.89 15.51 23.01 15.42 23.07 15.39C23.14 15.36 23.19 15.34 23.23 15.33C23.54 15.23 23.9 15.33 24.33 15.61C24.75 15.9 25.14 16.25 25.51 16.67C25.88 17.09 26.33 17.56 26.85 18.08C27.37 18.61 27.82 19 28.21 19.25L28.6 19.47C28.86 19.62 29.2 19.75 29.61 19.87C30.03 20 30.39 20.03 30.7 19.96L35.69 19.89C36.18 19.89 36.57 19.82 36.84 19.66C37.11 19.51 37.27 19.34 37.32 19.16C37.38 18.98 37.38 18.77 37.33 18.54C37.29 18.31 37.24 18.15 37.2 18.06Z" fill="#FFFFFF" fill-opacity="1.000000" fill-rule="nonzero"/>
</svg>
